img/instagram.svg

<svg width="76" height="77" viewBox="0 0 76 77" fill="none" xmlns="http://www.w3.org/2000/svg">
<path fill-rule="evenodd" clip-rule="evenodd" d="M37.9998 0.874512C17.013 0.874512 -0.000183105 17.8877 -0.000183105 38.8745C-0.000183105 59.8613 17.013 76.8745 37.9998 76.8745C58.9866 76.8745 75.9998 59.8613 75.9998 38.8745C75.9998 17.8877 58.9866 0.874512 37.9998 0.874512ZM29.645 18.7303C31.8064 18.6319 32.4973 18.6079 37.9986 18.6078C43.5015 18.6079 44.1899 18.6319 46.3512 18.7303C48.5088 18.8291 49.9824 19.1707 51.2744 19.6719C52.6086 20.1891 53.736 20.8815 54.8633 22.0089C55.9907 23.1354 56.6831 24.2661 57.2025 25.5991C57.7007 26.8877 58.0427 28.3604 58.144 30.518C58.2411 32.6798 58.2665 33.3706 58.2665 38.8747C58.2665 44.3789 58.2411 45.0679 58.144 47.2297C58.0427 49.3865 57.7007 50.8596 57.2025 52.1487C56.6831 53.4812 55.9907 54.612 54.8633 55.7385C53.7373 56.8658 52.6082 57.5599 51.2757 58.0776C49.9862 58.5788 48.5118 58.9204 46.3542 59.0192C44.1924 59.1175 43.5037 59.1416 37.9992 59.1416C32.4955 59.1416 31.8051 59.1175 29.6433 59.0192C27.4862 58.9204 26.013 58.5788 24.7235 58.0776C23.3914 57.5599 22.2607 56.8658 21.1346 55.7385C20.0077 54.612 19.3152 53.4812 18.7972 52.1483C18.2964 50.8596 17.9548 49.3869 17.8556 47.2293C17.7576 45.0675 17.7332 44.3789 17.7332 38.8747C17.7332 33.3706 17.7585 32.6794 17.8552 30.5176C17.9523 28.3609 18.2943 26.8877 18.7967 25.5987C19.3161 24.2661 20.0085 23.1354 21.1359 22.0089C22.2624 20.882 23.3931 20.1895 24.7261 19.6719C26.0147 19.1707 27.4874 18.8291 29.645 18.7303ZM37.9986 18.6078C37.9996 18.6078 38.0007 18.6078 38.0017 18.6078H37.9954C37.9964 18.6078 37.9975 18.6078 37.9986 18.6078Z" fill="#FD848D"/>
<path fill-rule="evenodd" clip-rule="evenodd" d="M36.1836 22.2602C36.5366 22.2596 36.9164 22.2598 37.3262 22.26L38.0017 22.2602C43.413 22.2602 44.0543 22.2796 46.1912 22.3767C48.1672 22.4671 49.2397 22.7973 49.9541 23.0747C50.8999 23.442 51.5742 23.8811 52.2831 24.5905C52.9924 25.2998 53.4316 25.9754 53.7997 26.9212C54.0771 27.6347 54.4077 28.7072 54.4977 30.6832C54.5948 32.8197 54.6159 33.4614 54.6159 38.8702C54.6159 44.2789 54.5948 44.9207 54.4977 47.0571C54.4073 49.0332 54.0771 50.1056 53.7997 50.8192C53.4324 51.765 52.9924 52.4384 52.2831 53.1473C51.5738 53.8567 50.9003 54.2958 49.9541 54.6631C49.2405 54.9418 48.1672 55.2711 46.1912 55.3615C44.0547 55.4586 43.413 55.4797 38.0017 55.4797C32.59 55.4797 31.9487 55.4586 29.8122 55.3615C27.8362 55.2703 26.7637 54.9401 26.0489 54.6627C25.1031 54.2954 24.4275 53.8563 23.7182 53.1469C23.0089 52.4376 22.5697 51.7637 22.2016 50.8175C21.9242 50.1039 21.5936 49.0315 21.5036 47.0555C21.4065 44.919 21.3871 44.2772 21.3871 38.8651C21.3871 33.453 21.4065 32.8146 21.5036 30.6781C21.594 28.7021 21.9242 27.6296 22.2016 26.9152C22.5689 25.9695 23.0089 25.2939 23.7182 24.5846C24.4275 23.8752 25.1031 23.4361 26.0489 23.0679C26.7633 22.7892 27.8362 22.4599 29.8122 22.3691C31.6818 22.2847 32.4064 22.2593 36.1836 22.2551V22.2602ZM48.82 25.6253C47.4773 25.6253 46.388 26.7134 46.388 28.0565C46.388 29.3992 47.4773 30.4885 48.82 30.4885C50.1627 30.4885 51.252 29.3992 51.252 28.0565C51.252 26.7138 50.1627 25.6245 48.82 25.6245V25.6253ZM27.5938 38.8748C27.5938 33.1272 32.2537 28.4671 38.0013 28.4669C43.7491 28.4669 48.4079 33.127 48.4079 38.8748C48.4079 44.6226 43.7495 49.2806 38.0017 49.2806C32.2539 49.2806 27.5938 44.6226 27.5938 38.8748Z" fill="#FD848D"/>
<path d="M38.0017 32.1191C41.7325 32.1191 44.7573 35.1436 44.7573 38.8748C44.7573 42.6056 41.7325 45.6304 38.0017 45.6304C34.2705 45.6304 31.2461 42.6056 31.2461 38.8748C31.2461 35.1436 34.2705 32.1191 38.0017 32.1191Z" fill="#FD848D"/>
</svg>

<svg width="76" height="77" fill="none" xmlns="http://www.w3.org/2000/svg"><path fill-rule="evenodd" clip-rule="evenodd" d="M38 .875c-20.987 0-38 17.013-38 38 0 20.986 17.013 38 38 38s38-17.014 38-38c0-20.987-17.013-38-38-38zM29.645 18.73c2.161-.098 2.852-.122 8.354-.122 5.502 0 6.19.024 8.352.122 2.158.1 3.631.44 4.923.942a9.904 9.904 0 013.59 2.337 9.941 9.941 0 012.339 3.59c.498 1.289.84 2.761.941 4.919.097 2.162.123 2.853.123 8.357s-.026 6.193-.123 8.355c-.101 2.157-.443 3.63-.941 4.919-.52 1.332-1.212 2.463-2.34 3.59a9.917 9.917 0 01-3.587 2.339c-1.29.5-2.764.842-4.922.941-2.162.099-2.85.123-8.355.123-5.504 0-6.194-.025-8.356-.123-2.157-.099-3.63-.44-4.92-.941a9.925 9.925 0 01-3.588-2.34 9.93 9.93 0 01-2.338-3.59c-.5-1.288-.842-2.761-.941-4.919-.098-2.161-.123-2.85-.123-8.354s.026-6.196.122-8.357c.097-2.157.44-3.63.942-4.92.52-1.332 1.212-2.463 2.339-3.59a9.923 9.923 0 013.59-2.336c1.289-.501 2.761-.843 4.919-.942zm8.354-.122h.003-.007H38z" fill="#FD848D"/><path fill-rule="evenodd" clip-rule="evenodd" d="M36.184 22.26h1.818c5.411 0 6.052.02 8.19.117 1.975.09 3.048.42 3.762.698.946.367 1.62.806 2.33 1.515a6.307 6.307 0 011.516 2.331c.277.714.608 1.786.698 3.762.097 2.137.118 2.778.118 8.187 0 5.409-.021 6.05-.118 8.187-.09 1.976-.42 3.049-.698 3.762a6.266 6.266 0 01-1.517 2.328 6.263 6.263 0 01-2.329 1.516c-.714.279-1.787.608-3.763.699-2.136.097-2.778.118-8.19.118-5.411 0-6.052-.021-8.189-.118-1.976-.092-3.048-.422-3.763-.7-.946-.367-1.622-.806-2.33-1.515a6.26 6.26 0 01-1.517-2.33c-.278-.713-.608-1.785-.698-3.761-.098-2.137-.117-2.779-.117-8.19 0-5.413.02-6.051.117-8.188.09-1.976.42-3.048.698-3.763.367-.945.807-1.621 1.516-2.33.71-.71 1.385-1.149 2.33-1.517.715-.279 1.788-.608 3.764-.699 1.87-.084 2.594-.11 6.372-.114v.005zm12.636 3.365a2.432 2.432 0 100 4.865 2.432 2.432 0 000-4.865zm-21.226 13.25c0-5.748 4.66-10.408 10.407-10.408 5.748 0 10.407 4.66 10.407 10.408 0 5.748-4.659 10.406-10.406 10.406-5.748 0-10.408-4.658-10.408-10.406z" fill="#FD848D"/><path d="M38.002 32.12a6.756 6.756 0 110 13.51 6.756 6.756 0 010-13.51z" fill="#FD848D"/></svg>
